X:98
T:Untitled. HA.097
M:6/4
L:1/4
Q:3/4=90
C:in Hand C
S:Henry Atkinson’s original MS,Hartburn,N’umberland,1694.
O:England
A:Hartburn,Northumberland
N:NB=two bars of curious symbols.CGP
H:1/4
Z:vmp.Chris Partington.Jan.2004
K:F
a|f2e f2g|e3-e2f|d2^cd2e|^c3-c2a|
b2a b2c’|a3g3|f2ee2d|d3-d2:|
|:f|e2d e2f|g3-g2a|f2e f2g|e3-e2d/e/|
f2cd2A|B2B B2c|A2B G2A|A3-A2|
“^NB”egd cec|cecAcb/a/|g2f e2d|c3-c2(B/A/)|
B2(c/A/) A2(d/c/)|=B2e^c2(B/c/)|d2e e2d|d3-d2:|

